X: 2106
T: Kingussie Flower
P: Kingussie Flower
C:Old Song
R:Reel (8x40) ABABB
B:RSCDS 21-6
Z:Anselm Lingnau <anselm@strathspey.org>
M:2/4
L:1/16
K:Dm
DE|"Dm"F2A2 A2=B^c|d2A2A2f2|"A7"e2d2 fed^c|"Dm"[d6F6] DE|
   "Dm"F2A2 A2=B^c|d2A2A2f2|"A7"e2d2 fed^c|"Dm"[d6F6]||
fg|"Dm"a2f2f2 ga|"C"g2c2c2 de|"Dm"f2d2d2 ef|"A7"e2A2A2 FG|
   "Dm"AGFG AGFG|AGAB A2f2|"A7"e2d2 fed^c|"Dm"[d3F3]|]
%%center Book21/2106-Kingussie_Flower-AL.abc

%%sep 1 1 500
%%sep 1 1 500

